fs/sticker_24_filled.svg

<svg viewBox="0 0 24 24" fill="none" xmlns="http://www.w3.org/2000/svg" height="1em" width="1em">
  <path d="M17.75 3C19.5449 3 21 4.45507 21 6.25V12.999L16.2512 13L16.038 13.0069C14.8404 13.0848 13.8195 13.8111 13.3236 14.8393C12.9039 14.9527 12.4636 15.0095 12.0009 15.0095C10.9561 15.0095 10.0214 14.7199 9.17654 14.1356C8.83587 13.9 8.36869 13.9851 8.13307 14.3258C7.89744 14.6665 7.98259 15.1336 8.32326 15.3693C9.41979 16.1277 10.6524 16.5095 12.0009 16.5095C12.2279 16.5095 12.4518 16.4987 12.6724 16.477L13.0009 16.4364L13 21H6.25C4.45507 21 3 19.5449 3 17.75V6.25C3 4.45507 4.45507 3 6.25 3H17.75ZM20.341 14.7197L14.7197 20.341C14.6508 20.4098 14.578 20.4737 14.5017 20.5325L14.5008 16.2501L14.5066 16.1066C14.5759 15.2573 15.2516 14.5794 16.0999 14.5065L16.2514 14.5L20.5332 14.5007C20.4743 14.5774 20.4101 14.6505 20.341 14.7197ZM9.00045 7.75116C8.31048 7.75116 7.75116 8.31048 7.75116 9.00045C7.75116 9.69041 8.31048 10.2497 9.00045 10.2497C9.69041 10.2497 10.2497 9.69041 10.2497 9.00045C10.2497 8.31048 9.69041 7.75116 9.00045 7.75116ZM15.0004 7.75116C14.3105 7.75116 13.7512 8.31048 13.7512 9.00045C13.7512 9.69041 14.3105 10.2497 15.0004 10.2497C15.6904 10.2497 16.2497 9.69041 16.2497 9.00045C16.2497 8.31048 15.6904 7.75116 15.0004 7.75116Z" fill="#212121"/>
</svg>

<svg viewBox="0 0 24 24" fill="none" xmlns="http://www.w3.org/2000/svg" height="1em" width="1em">
  <path d="M17.75 3A3.25 3.25 0 0 1 21 6.25v6.749L16.251 13l-.213.007a3.25 3.25 0 0 0-2.714 1.832c-.42.114-.86.17-1.323.17a4.84 4.84 0 0 1-2.824-.873.75.75 0 1 0-.854 1.233 6.335 6.335 0 0 0 3.678 1.14c.227 0 .45-.01.671-.032l.329-.04L13 21H6.25A3.25 3.25 0 0 1 3 17.75V6.25A3.25 3.25 0 0 1 6.25 3h11.5Zm2.591 11.72-5.621 5.62a2.266 2.266 0 0 1-.218.191L14.5 16.25l.006-.143a1.75 1.75 0 0 1 1.593-1.6l.151-.007h4.282c-.059.077-.123.15-.192.22ZM9.001 7.75a1.25 1.25 0 1 0 0 2.499A1.25 1.25 0 0 0 9 7.75Zm6 0a1.25 1.25 0 1 0 0 2.499 1.25 1.25 0 0 0 0-2.499Z" fill="#212121"/>
</svg>
